images/svg/icon2.svg

<svg width="72" height="72" viewBox="0 0 72 72" fill="none" xmlns="http://www.w3.org/2000/svg">
<circle cx="36" cy="36" r="36" fill="#4C5269"/>
<path fill-rule="evenodd" clip-rule="evenodd" d="M35.9999 71.9999C55.8821 71.9999 71.9999 55.8822 71.9999 35.9999C71.9999 34.637 71.9241 33.2918 71.7766 31.9682C66.0973 34.8718 59.14 37.4996 50.4998 37.4996C24.7628 37.4996 10.0426 41.7326 1.87854 47.5082C6.67906 61.7467 20.1421 71.9999 35.9999 71.9999Z" fill="url(#paint0_linear_38_497)"/>
<g clip-path="url(#clip0_38_497)">
<path d="M26.8203 26.8203V32.0986H32.0986V26.8203H26.8203ZM33.3608 26.8203V32.0986H38.6392V26.8203H33.3608ZM39.9014 26.8203V32.0986H45.1797V26.8203H39.9014ZM26.8203 33.3608V38.6392H32.0986V33.3608H26.8203ZM33.3608 33.3608V38.6392H38.6392V33.3608H33.3608ZM39.9014 33.3608V38.6392H45.1797V33.3608H39.9014ZM26.8203 39.9014V45.1797H32.0986V39.9014H26.8203ZM33.3608 39.9014V45.1797H38.6392V39.9014H33.3608ZM39.9014 39.9014V45.1797H45.1797V39.9014H39.9014Z" fill="white"/>
</g>
<defs>
<linearGradient id="paint0_linear_38_497" x1="41.8918" y1="31.2098" x2="41.8918" y2="80.6282" gradientUnits="userSpaceOnUse">
<stop stop-color="#6683FF"/>
<stop offset="1" stop-color="#BB98FF"/>
</linearGradient>
<clipPath id="clip0_38_497">
<rect width="20" height="20" fill="white" transform="translate(26 26)"/>
</clipPath>
</defs>
</svg>

<svg xmlns="http://www.w3.org/2000/svg" width="72" height="72" fill="none"><circle cx="36" cy="36" r="36" fill="#4C5269"/><path fill="url(#a)" fill-rule="evenodd" d="M36 72c19.882 0 36-16.118 36-36 0-1.363-.076-2.708-.223-4.032C66.097 34.872 59.14 37.5 50.5 37.5c-25.737 0-40.457 4.233-48.621 10.008C6.679 61.747 20.142 72 35.999 72Z" clip-rule="evenodd"/><g clip-path="url(#b)"><path fill="#fff" d="M26.82 26.82V32.1H32.1V26.82H26.82Zm6.54 0V32.1h5.28V26.82h-5.28Zm6.541 0V32.1h5.279V26.82H39.9Zm-13.08 6.54v5.28h5.278v-5.28H26.82Zm6.54 0v5.28h5.278v-5.28h-5.278Zm6.54 0v5.28h5.279v-5.28H39.9Zm-13.08 6.541v5.279h5.278V39.9H26.82Zm6.54 0v5.279h5.278V39.9h-5.278Zm6.54 0v5.279h5.279V39.9H39.9Z"/></g><defs><linearGradient id="a" x1="41.892" x2="41.892" y1="31.21" y2="80.628" gradientUnits="userSpaceOnUse"><stop stop-color="#6683FF"/><stop offset="1" stop-color="#BB98FF"/></linearGradient><clipPath id="b"><path fill="#fff" d="M26 26h20v20H26z"/></clipPath></defs></svg>
